src/icons/arrow-expand.svg

<svg width="24" height="24" viewBox="0 0 24 24" fill="none" xmlns="http://www.w3.org/2000/svg">
<path d="M14 2V4H18.5858L12.7929 9.79289L14.2071 11.2071L20 5.41421V10H22V2H14Z" fill="black"/>
<path d="M10 22V20H5.41421L11.2071 14.2071L9.79289 12.7929L4 18.5858L4 14H2V22H10Z" fill="black"/>
</svg>

<svg xmlns="http://www.w3.org/2000/svg" width="24" height="24" fill="none"><path fill="currentColor" d="M14 2v2h4.586l-5.793 5.793 1.414 1.414L20 5.414V10h2V2zm-4 20v-2H5.414l5.793-5.793-1.414-1.414L4 18.586V14H2v8z"/></svg>
